public/img/icons/logo.svg

<svg width="203" height="90" viewBox="0 0 203 90" fill="none" xmlns="http://www.w3.org/2000/svg">
<rect x="18" y="22" width="155" height="47" fill="#FF0000"/>
<circle cx="171.5" cy="45.5" r="23.5" fill="#FF0000"/>
<path d="M54.064 47.2V41.76H65.04C66.4907 41.76 67.7813 42.0587 68.912 42.656C70.064 43.2533 70.9707 44.0853 71.632 45.152C72.3147 46.1973 72.656 47.4133 72.656 48.8C72.656 50.1653 72.3147 51.392 71.632 52.48C70.9707 53.568 70.064 54.432 68.912 55.072C67.7813 55.6907 66.4907 56 65.04 56H54.064V50.4H63.12C63.6533 50.4 64.0907 50.3467 64.432 50.24C64.7733 50.1333 65.0293 49.9627 65.2 49.728C65.3707 49.4933 65.456 49.184 65.456 48.8C65.456 48.416 65.3707 48.1067 65.2 47.872C65.0293 47.6373 64.7733 47.4667 64.432 47.36C64.0907 47.2533 63.6533 47.2 63.12 47.2H54.064ZM52.56 33.6H70.96V39.2H59.76V56H52.56V33.6ZM97.9488 33.6L87.4208 56H80.3808L83.4848 49.056L76.1888 33.6H83.8688L88.0288 45.92H85.3088L90.7488 33.6H97.9488ZM102.921 33.6H109.961V56H102.921V33.6ZM107.465 39.2V33.6H111.721C113.919 33.6 115.7 33.9093 117.065 34.528C118.452 35.1467 119.465 36.032 120.105 37.184C120.767 38.3147 121.097 39.68 121.097 41.28C121.097 42.8587 120.767 44.224 120.105 45.376C119.465 46.528 118.452 47.4133 117.065 48.032C115.7 48.6507 113.919 48.96 111.721 48.96H107.465V43.36H111.721C112.596 43.36 113.257 43.1787 113.705 42.816C114.153 42.4533 114.377 41.9413 114.377 41.28C114.377 40.6187 114.153 40.1067 113.705 39.744C113.257 39.3813 112.596 39.2 111.721 39.2H107.465ZM129.63 53.12V48.064H141.47V53.12H129.63ZM135.486 43.776L132.734 49.952L133.278 51.552L130.846 56H122.846L135.486 32L148.126 56H140.126L137.758 51.776L138.238 49.952L135.486 43.776ZM154.919 47.52V41.28H172.839V47.52H154.919ZM168.455 33.6H175.495V56H168.455V33.6ZM153.415 33.6H160.455V56H153.415V33.6Z" fill="white"/>
<circle cx="23.5" cy="45.5" r="23.5" fill="#FF0000"/>
<path d="M43.4489 43.229L28.3272 52.6291C28.0904 54.1077 27.4742 55.5373 26.4747 56.7588L13.7664 44.8741C15.0028 43.7174 16.494 42.9899 18.0514 42.6873L27.5794 27.3596C27.92 26.812 28.4523 26.9684 29 27.3085C29.5476 27.649 29.9027 28.0447 29.5623 28.5923L20.8547 42.6002C22.3 42.7885 23.7069 43.3376 24.9292 44.2505L38.6659 30.5137C39.122 30.058 39.5441 30.3528 40 30.8085C40.4559 31.2645 40.7727 31.7087 40.3168 32.1646L26.5967 45.8847C27.5279 47.077 28.1058 48.4546 28.3303 49.8781L42.216 41.2462C42.7637 40.9059 43.1599 41.2612 43.5 41.8085C43.8407 42.356 43.9964 42.8886 43.4489 43.229ZM13.5529 57.41C16.6061 60.4632 21.359 60.777 24.7642 58.3555L12.2853 46.6855C10.2215 50.0452 10.6425 54.4998 13.5529 57.41Z" fill="white"/>
</svg>

<svg xmlns="http://www.w3.org/2000/svg" width="203" height="90" fill="none" viewBox="0 0 203 90"><path fill="red" d="M18 22h155v47H18z"/><circle cx="171.5" cy="45.5" r="23.5" fill="red"/><path fill="#fff" d="M54.064 47.2v-5.44H65.04q2.175 0 3.872.896 1.728.896 2.72 2.496 1.024 1.567 1.024 3.648 0 2.048-1.024 3.68a7.2 7.2 0 0 1-2.72 2.592Q67.217 56 65.04 56H54.064v-5.6h9.056q.8 0 1.312-.16.511-.16.768-.512.255-.352.256-.928 0-.576-.256-.928t-.768-.512-1.312-.16zM52.56 33.6h18.4v5.6h-11.2V56h-7.2zm45.389 0L87.42 56h-7.04l3.104-6.944L76.189 33.6h7.68l4.16 12.32h-2.72l5.44-12.32zm4.972 0h7.04V56h-7.04zm4.544 5.6v-5.6h4.256q3.297 0 5.344.928 2.08.928 3.04 2.656.993 1.696.992 4.096 0 2.368-.992 4.096-.96 1.728-3.04 2.656-2.047.928-5.344.928h-4.256v-5.6h4.256q1.312 0 1.984-.544t.672-1.536-.672-1.536-1.984-.544zm22.165 13.92v-5.056h11.84v5.056zm5.856-9.344-2.752 6.176.544 1.6L130.846 56h-8l12.64-24 12.64 24h-8l-2.368-4.224.48-1.824zm19.433 3.744v-6.24h17.92v6.24zm13.536-13.92h7.04V56h-7.04zm-15.04 0h7.04V56h-7.04z"/><circle cx="23.5" cy="45.5" r="23.5" fill="red"/><path fill="#fff" d="m43.449 43.229-15.122 9.4a8.7 8.7 0 0 1-1.852 4.13L13.766 44.874a8.7 8.7 0 0 1 4.285-2.187L27.58 27.36c.341-.548.873-.392 1.421-.052.548.341.903.737.562 1.284L20.855 42.6a8.67 8.67 0 0 1 4.074 1.65l13.737-13.736c.456-.456.878-.161 1.334.294.456.457.773.9.317 1.357l-13.72 13.72a8.7 8.7 0 0 1 1.733 3.993l13.886-8.632c.548-.34.944.015 1.284.563s.496 1.08-.051 1.42M13.553 57.41c3.053 3.053 7.806 3.367 11.211.946l-12.479-11.67c-2.063 3.36-1.642 7.814 1.268 10.724"/></svg>
